Komodo/status/scalable/apport.svg

<?xml version="1.0" encoding="UTF-8" standalone="no"?>
<!-- Created with Inkscape (http://www.inkscape.org/) -->

<svg
   xmlns:dc="http://purl.org/dc/elements/1.1/"
   xmlns:cc="http://creativecommons.org/ns#"
   xmlns:rdf="http://www.w3.org/1999/02/22-rdf-syntax-ns#"
   xmlns:svg="http://www.w3.org/2000/svg"
   xmlns="http://www.w3.org/2000/svg"
   xmlns:xlink="http://www.w3.org/1999/xlink"
   xmlns:sodipodi="http://sodipodi.sourceforge.net/DTD/sodipodi-0.dtd"
   xmlns:inkscape="http://www.inkscape.org/namespaces/inkscape"
   width="96"
   height="96"
   id="svg11037"
   version="1.1"
   inkscape:version="0.48.3.1 r9886"
   sodipodi:docname="templat.svg">
  <defs
     id="defs11039">
    <linearGradient
       y2="1046.1001"
       x2="47.999954"
       y1="962.62189"
       x1="47.999954"
       gradientTransform="matrix(1.15,0,0,1.15,-7.1999462,-150.65291)"
       gradientUnits="userSpaceOnUse"
       id="linearGradient3886"
       xlink:href="#linearGradient3795"
       inkscape:collect="always" />
    <linearGradient
       id="linearGradient3795">
      <stop
         style="stop-color:#13a6fd;stop-opacity:1;"
         offset="0"
         id="stop3797" />
      <stop
         style="stop-color:#2975b6;stop-opacity:1;"
         offset="1"
         id="stop3799" />
    </linearGradient>
    <linearGradient
       y2="1046.1001"
       x2="47.999954"
       y1="962.62189"
       x1="47.999954"
       gradientTransform="matrix(1.15,0,0,1.15,-7.1999462,-150.65292)"
       gradientUnits="userSpaceOnUse"
       id="linearGradient11642"
       xlink:href="#linearGradient2881"
       inkscape:collect="always" />
    <clipPath
       clipPathUnits="userSpaceOnUse"
       id="clipPath3009">
      <path
         id="path3011"
         d="m -2,956.36218 -96,0 0,33.5624 96,25.68742 0,-59.24982 z"
         style="opacity:0.15;fill:#ffffff;fill-opacity:1;stroke:none"
         inkscape:connector-curvature="0" />
    </clipPath>
    <linearGradient
       x1="48"
       y1="90"
       x2="48"
       y2="5.9877172"
       id="linearGradient3617"
       xlink:href="#linearGradient2881"
       gradientUnits="userSpaceOnUse" />
    <linearGradient
       id="linearGradient2881">
      <stop
         id="stop2883"
         style="stop-color:#a90c0c;stop-opacity:1"
         offset="0" />
      <stop
         id="stop2885"
         style="stop-color:#f05530;stop-opacity:1"
         offset="1" />
    </linearGradient>
    <linearGradient
       gradientTransform="translate(-98.76016,950.36216)"
       y2="5.9877172"
       x2="48"
       y1="90"
       x1="48"
       gradientUnits="userSpaceOnUse"
       id="linearGradient3052"
       xlink:href="#linearGradient2881"
       inkscape:collect="always" />
    <linearGradient
       x1="6.6201301"
       y1="16.384687"
       x2="6.6201301"
       y2="1.0923122"
       id="linearGradient3053"
       xlink:href="#linearGradient3731"
       gradientUnits="userSpaceOnUse"
       gradientTransform="matrix(-4.5057883,0,0,3.8842887,81.128906,14.057144)" />
    <linearGradient
       id="linearGradient3731">
      <stop
         id="stop3733"
         style="stop-color:#dcdcdc;stop-opacity:1"
         offset="0" />
      <stop
         id="stop3757"
         style="stop-color:#ebebeb;stop-opacity:1"
         offset="0.30654153" />
      <stop
         id="stop3737"
         style="stop-color:#ffffff;stop-opacity:1"
         offset="0.70706075" />
      <stop
         id="stop3759"
         style="stop-color:#fafafa;stop-opacity:1"
         offset="0.84501493" />
      <stop
         id="stop3735"
         style="stop-color:#f0f0f0;stop-opacity:1"
         offset="1" />
    </linearGradient>
  </defs>
  <sodipodi:namedview
     id="base"
     pagecolor="#ffffff"
     bordercolor="#666666"
     borderopacity="1.0"
     inkscape:pageopacity="0.0"
     inkscape:pageshadow="2"
     inkscape:zoom="3.959798"
     inkscape:cx="29.118614"
     inkscape:cy="59.964634"
     inkscape:document-units="px"
     inkscape:current-layer="layer1"
     showgrid="false"
     inkscape:window-width="1280"
     inkscape:window-height="750"
     inkscape:window-x="0"
     inkscape:window-y="22"
     inkscape:window-maximized="1"
     showguides="true"
     inkscape:guide-bbox="true">
    <sodipodi:guide
       orientation="0,1"
       position="-24.748737,0"
       id="guide11064" />
    <sodipodi:guide
       orientation="0,1"
       position="-23.233509,96"
       id="guide11066" />
    <sodipodi:guide
       orientation="1,0"
       position="0,54.800776"
       id="guide11068" />
    <sodipodi:guide
       orientation="1,0"
       position="96,51.012704"
       id="guide11070" />
    <sodipodi:guide
       orientation="0,1"
       position="-18.94036,48"
       id="guide11072" />
    <sodipodi:guide
       orientation="1,0"
       position="48,79.296975"
       id="guide11074" />
    <sodipodi:guide
       orientation="1,0"
       position="2,75.508903"
       id="guide11076" />
    <sodipodi:guide
       orientation="0,1"
       position="-77.27667,2"
       id="guide11078" />
    <sodipodi:guide
       orientation="1,0"
       position="94,77.781746"
       id="guide11080" />
    <sodipodi:guide
       orientation="0,1"
       position="-65.912454,94"
       id="guide11082" />
  </sodipodi:namedview>
  <metadata
     id="metadata11042">
    <rdf:RDF>
      <cc:Work
         rdf:about="">
        <dc:format>image/svg+xml</dc:format>
        <dc:type
           rdf:resource="http://purl.org/dc/dcmitype/StillImage" />
        <dc:title></dc:title>
      </cc:Work>
    </rdf:RDF>
  </metadata>
  <g
     inkscape:label="Layer 1"
     inkscape:groupmode="layer"
     id="layer1"
     transform="translate(0,-956.36218)">
    <rect
       x="2"
       y="958.36218"
       width="92"
       height="92"
       style="fill:url(#linearGradient11642);fill-opacity:1.0"
       id="rect3867"
       rx="25"
       ry="25" />
    <g
       transform="translate(0,956.36218)"
       id="g3054">
      <path
         style="opacity:0.3;fill:#550000;fill-opacity:1;stroke:none;display:inline"
         id="path3891"
         inkscape:connector-curvature="0"
         d="m 42.75,19.3125 -4.65625,16.5 L 18.3125,32.5 31.5,45.6875 15,52.3125 l 17.4375,2.875 -14.125,16.90625 19.59375,-5.5625 3.5,12.15625 9.90625,-9.875 16.5,9.875 L 63.875,60.25 81,58.90625 66.5625,48.59375 76.875,42.40625 66.0625,41.15625 77.6875,22.59375 52.9375,33.9375 42.75,19.3125 z M 45,39 l 6,0 c 0.554,0 1,0.446 1,1 l 0,12 c 0,0.554 -0.446,1 -1,1 l -6,0 c -0.554,0 -1,-0.446 -1,-1 l 0,-12 c 0,-0.554 0.446,-1 1,-1 z m 0,16 6,0 c 0.554,0 1,0.446 1,1 l 0,6 c 0,0.554 -0.446,1 -1,1 l -6,0 c -0.554,0 -1,-0.446 -1,-1 l 0,-6 c 0,-0.554 0.446,-1 1,-1 z" />
      <path
         style="fill:url(#linearGradient3053);fill-opacity:1;stroke:none;display:inline"
         id="Symbol"
         inkscape:connector-curvature="0"
         d="m 42.75,18.3125 -4.65625,16.5 L 18.3125,31.5 31.5,44.6875 15,51.3125 l 17.4375,2.875 -14.125,16.90625 19.59375,-5.5625 3.5,12.15625 9.90625,-9.875 16.5,9.875 L 63.875,59.25 81,57.90625 66.5625,47.59375 76.875,41.40625 66.0625,40.15625 77.6875,21.59375 52.9375,32.9375 42.75,18.3125 z M 45,38 l 6,0 c 0.554,0 1,0.446 1,1 l 0,12 c 0,0.554 -0.446,1 -1,1 l -6,0 c -0.554,0 -1,-0.446 -1,-1 l 0,-12 c 0,-0.554 0.446,-1 1,-1 z m 0,16 6,0 c 0.554,0 1,0.446 1,1 l 0,6 c 0,0.554 -0.446,1 -1,1 l -6,0 c -0.554,0 -1,-0.446 -1,-1 l 0,-6 c 0,-0.554 0.446,-1 1,-1 z" />
      <path
         style="opacity:0.4;fill:#ffffff;fill-opacity:1;stroke:none;display:inline"
         id="path3905"
         inkscape:connector-curvature="0"
         d="m 42.75,18.3125 -4.65625,16.5 L 18.3125,31.5 l 2.40625,2.40625 17.375,2.90625 4.65625,-16.5 10.1875,14.625 23,-10.53125 1.75,-2.8125 L 52.9375,32.9375 42.75,18.3125 z m 24.46875,21.96875 -1.15625,1.875 8.03125,0.9375 2.78125,-1.6875 -9.65625,-1.125 z M 30.0625,45.25 15,51.3125 18.53125,51.90625 31.5,46.6875 30.0625,45.25 z m 38.03125,3.4375 -1.53125,0.90625 11.90625,8.5 L 81,57.90625 68.09375,48.6875 z M 44,51 l 0,2 c 0,0.554 0.446,1 1,1 l 6,0 c 0.554,0 1,-0.446 1,-1 l 0,-2 c 0,0.554 -0.446,1 -1,1 l -6,0 c -0.554,0 -1,-0.446 -1,-1 z M 30.96875,55.9375 18.3125,71.09375 20.5,70.46875 32.4375,56.1875 30.96875,55.9375 z M 44,61 l 0,2 c 0,0.554 0.446,1 1,1 l 6,0 c 0.554,0 1,-0.446 1,-1 l 0,-2 c 0,0.554 -0.446,1 -1,1 l -6,0 c -0.554,0 -1,-0.446 -1,-1 z M 64.28125,61.21875 63.875,61.25 l 3.4375,16.15625 0.5,0.28125 -3.53125,-16.46875 z" />
      <path
         style="opacity:0.8;fill:#ffffff;fill-opacity:1;stroke:none;display:inline"
         id="path3914"
         inkscape:connector-curvature="0"
         d="m 42.75,18.3125 -4.65625,16.5 L 18.3125,31.5 19.5,32.6875 38.09375,35.8125 42.75,19.3125 52.9375,33.9375 76.8125,23 77.6875,21.59375 52.9375,32.9375 42.75,18.3125 z M 66.65625,40.21875 66.0625,41.15625 75.46875,42.25 76.875,41.40625 66.65625,40.21875 z m -35.875,4.75 L 15,51.3125 16.75,51.59375 31.5,45.6875 30.78125,44.96875 z M 67.3125,48.125 66.5625,48.59375 79.75,58 81,57.90625 67.3125,48.125 z M 44,51 l 0,1 c 0,0.554 0.446,1 1,1 l 6,0 c 0.554,0 1,-0.446 1,-1 l 0,-1 c 0,0.554 -0.446,1 -1,1 l -6,0 c -0.554,0 -1,-0.446 -1,-1 z M 31.71875,55.0625 18.3125,71.09375 19.40625,70.78125 32.4375,55.1875 31.71875,55.0625 z m 32.375,5.15625 -0.21875,0.03125 3.6875,17.28125 0.25,0.15625 -3.71875,-17.46875 z M 44,61 l 0,1 c 0,0.554 0.446,1 1,1 l 6,0 c 0.554,0 1,-0.446 1,-1 l 0,-1 c 0,0.554 -0.446,1 -1,1 l -6,0 c -0.554,0 -1,-0.446 -1,-1 z" />
    </g>
    <rect
       ry="25"
       rx="25"
       id="rect3003"
       style="opacity:0.15;fill:#ffffff;fill-opacity:1"
       height="92"
       width="92"
       y="958.36218"
       x="-96"
       clip-path="url(#clipPath3009)"
       transform="translate(98,0)" />
  </g>
</svg>

<?xml version="1.0" encoding="UTF-8" standalone="no"?>
<!-- Created with Inkscape (http://www.inkscape.org/) -->
<svg id="svg11037" xmlns:rdf="http://www.w3.org/1999/02/22-rdf-syntax-ns#" xmlns="http://www.w3.org/2000/svg" height="96" width="96" version="1.1" xmlns:cc="http://creativecommons.org/ns#" xmlns:xlink="http://www.w3.org/1999/xlink" xmlns:dc="http://purl.org/dc/elements/1.1/">
 <defs id="defs11039">
  <linearGradient id="linearGradient11642" y2="1046.1" gradientUnits="userSpaceOnUse" y1="962.62" gradientTransform="matrix(1.15 0 0 1.15 -7.1999 -150.65)" x2="48" x1="48">
   <stop id="stop2883" style="stop-color:#a90c0c" offset="0"/>
   <stop id="stop2885" style="stop-color:#f05530" offset="1"/>
  </linearGradient>
  <clipPath id="clipPath3009" clipPathUnits="userSpaceOnUse">
   <path id="path3011" style="opacity:.15;fill:#fff" d="m-2 956.36h-96v33.562l96 25.687v-59.25z"/>
  </clipPath>
  <linearGradient id="linearGradient3053" y2="1.0923" gradientUnits="userSpaceOnUse" x2="6.6201" gradientTransform="matrix(-4.5058 0 0 3.8843 81.129 14.057)" y1="16.385" x1="6.6201">
   <stop id="stop3733" style="stop-color:#dcdcdc" offset="0"/>
   <stop id="stop3757" style="stop-color:#ebebeb" offset=".30654"/>
   <stop id="stop3737" style="stop-color:#fff" offset=".70706"/>
   <stop id="stop3759" style="stop-color:#fafafa" offset=".84501"/>
   <stop id="stop3735" style="stop-color:#f0f0f0" offset="1"/>
  </linearGradient>
 </defs>
 <metadata id="metadata11042">
  <rdf:RDF>
   <cc:Work rdf:about="">
    <dc:format>image/svg+xml</dc:format>
    <dc:type rdf:resource="http://purl.org/dc/dcmitype/StillImage"/>
    <dc:title/>
   </cc:Work>
  </rdf:RDF>
 </metadata>
 <g id="layer1" transform="translate(0 -956.36)">
  <rect id="rect3867" style="fill:url(#linearGradient11642)" rx="25" ry="25" height="92" width="92" y="958.36" x="2"/>
  <g id="g3054" transform="translate(0 956.36)">
   <path id="path3891" d="m42.75 19.312-4.6562 16.5l-19.782-3.312 13.188 13.188-16.5 6.624 17.438 2.875-14.125 16.906 19.594-5.5625 3.5 12.156 9.9062-9.875 16.5 9.875-3.938-18.436 17.125-1.344-14.438-10.312 10.313-6.188-10.813-1.25 11.626-18.562-24.75 11.344-10.188-14.626zm2.25 19.688h6c0.554 0 1 0.446 1 1v12c0 0.554-0.446 1-1 1h-6c-0.554 0-1-0.446-1-1v-12c0-0.554 0.446-1 1-1zm0 16h6c0.554 0 1 0.446 1 1v6c0 0.554-0.446 1-1 1h-6c-0.554 0-1-0.446-1-1v-6c0-0.554 0.446-1 1-1z" style="opacity:.3;fill:#500"/>
   <path id="Symbol" d="m42.75 18.312-4.6562 16.5l-19.782-3.312 13.188 13.188-16.5 6.624 17.438 2.875-14.125 16.906 19.594-5.5625 3.5 12.156 9.9062-9.875 16.5 9.875-3.938-18.436 17.125-1.344-14.438-10.312 10.313-6.188-10.813-1.25 11.626-18.562-24.75 11.344-10.188-14.626zm2.25 19.688h6c0.554 0 1 0.446 1 1v12c0 0.554-0.446 1-1 1h-6c-0.554 0-1-0.446-1-1v-12c0-0.554 0.446-1 1-1zm0 16h6c0.554 0 1 0.446 1 1v6c0 0.554-0.446 1-1 1h-6c-0.554 0-1-0.446-1-1v-6c0-0.554 0.446-1 1-1z" style="fill:url(#linearGradient3053)"/>
   <path id="path3905" d="m42.75 18.312-4.6562 16.5l-19.782-3.312 2.4062 2.4062 17.375 2.9062 4.6562-16.5 10.188 14.625 23-10.531 1.75-2.8125-24.749 11.344-10.188-14.626zm24.469 21.969-1.1562 1.875 8.0312 0.9375 2.7812-1.6875-9.6562-1.125zm-37.157 4.969-15.062 6.062 3.531 0.594 12.969-5.218-1.438-1.438zm38.031 3.4375-1.5312 0.90625 11.906 8.5l2.532-0.188-12.906-9.218zm-24.093 2.312v2c0 0.554 0.446 1 1 1h6c0.554 0 1-0.446 1-1v-2c0 0.554-0.446 1-1 1h-6c-0.554 0-1-0.446-1-1zm-13.031 4.938-12.657 15.156 2.188-0.625 11.938-14.281-1.469-0.25zm13.031 5.062v2c0 0.554 0.446 1 1 1h6c0.554 0 1-0.446 1-1v-2c0 0.554-0.446 1-1 1h-6c-0.554 0-1-0.446-1-1zm20.281 0.219-0.406 0.031l3.4375 16.156 0.5 0.28125-3.5312-16.469z" style="opacity:.4;fill:#fff"/>
   <path id="path3914" d="m42.75 18.312-4.6562 16.5l-19.782-3.312 1.188 1.188 18.594 3.124 4.656-16.5 10.188 14.626 23.874-10.938 0.876-1.406-24.75 11.344-10.188-14.626zm23.906 21.907-0.594 0.937 9.407 1.094 1.406-0.844-10.219-1.187zm-35.875 4.75l-15.781 6.343 1.75 0.282 14.75-5.906-0.719-0.719zm36.531 3.156-0.75 0.469 13.188 9.406 1.25-0.094-13.688-9.781zm-23.312 2.875v1c0 0.554 0.446 1 1 1h6c0.554 0 1-0.446 1-1v-1c0 0.554-0.446 1-1 1h-6c-0.554 0-1-0.446-1-1zm-12.281 4.062-13.407 16.032 1.094-0.313 13.032-15.593-0.719-0.126zm32.375 5.1562-0.21875 0.03125 3.6875 17.281 0.25 0.15625-3.7188-17.469zm-20.094 0.782v1c0 0.554 0.446 1 1 1h6c0.554 0 1-0.446 1-1v-1c0 0.554-0.446 1-1 1h-6c-0.554 0-1-0.446-1-1z" style="opacity:.8;fill:#fff"/>
  </g>
  <rect id="rect3003" style="opacity:.15;fill:#fff" transform="translate(98)" clip-path="url(#clipPath3009)" rx="25" ry="25" height="92" width="92" y="958.36" x="-96"/>
 </g>
</svg>
